creative/fonts/xavani/uni032d.svg

<?xml version="1.0" encoding="UTF-8" standalone="no"?>
<svg width="500" height="850" version="1.1" id="svg6" sodipodi:docname="uni032d.svg" inkscape:version="1.4.3 (0d15f750, 2025-12-25)" xmlns:inkscape="http://www.inkscape.org/namespaces/inkscape" xmlns:sodipodi="http://sodipodi.sourceforge.net/DTD/sodipodi-0.dtd" xmlns="http://www.w3.org/2000/svg" xmlns:svg="http://www.w3.org/2000/svg">
    <defs id="defs6" />
    <sodipodi:namedview id="namedview6" pagecolor="#ffffff" bordercolor="#000000" borderopacity="0.25" inkscape:showpageshadow="2" inkscape:pageopacity="0.0" inkscape:pagecheckerboard="0" inkscape:deskcolor="#d1d1d1" inkscape:zoom="7.2736709" inkscape:cx="-250.01131" inkscape:cy="713.53242" inkscape:window-width="1095" inkscape:window-height="723" inkscape:window-x="0" inkscape:window-y="25" inkscape:window-maximized="0" inkscape:current-layer="svg6" />
    <path d="m -245.2168,701.9707 6.76563,-6.76562 v -9.56641 l -6.76563,-6.76562 h -9.5664 l -6.76563,6.76562 v 9.56641 l 6.76563,6.76562" id="path5" />
    <path d="m -238.45117,718.30273 6.76367,6.76368 h 9.56836 l 6.76367,-6.76368 v -9.56835 l -6.76367,-6.76368 h -9.56836 l -6.76367,6.76368" id="path3" />
    <path d="m -261.54883,708.73438 -6.76367,-6.76368 h -9.56836 l -6.76367,6.76368 v 9.56835 l 6.76367,6.76368 h 9.56836 l 6.76367,-6.76368" id="path2" />
</svg>

<?xml version="1.0" encoding="UTF-8" standalone="no"?>
<svg width="500" height="850" version="1.1" id="svg6" sodipodi:docname="uni032d.svg" inkscape:version="1.4.3 (0d15f750, 2025-12-25)" xmlns:inkscape="http://www.inkscape.org/namespaces/inkscape" xmlns:sodipodi="http://sodipodi.sourceforge.net/DTD/sodipodi-0.dtd" xmlns="http://www.w3.org/2000/svg" xmlns:svg="http://www.w3.org/2000/svg">
    <defs id="defs6" />
    <sodipodi:namedview id="namedview6" pagecolor="#ffffff" bordercolor="#000000" borderopacity="0.25" inkscape:showpageshadow="2" inkscape:pageopacity="0.0" inkscape:pagecheckerboard="0" inkscape:deskcolor="#d1d1d1" inkscape:zoom="7.2736709" inkscape:cx="-249.94257" inkscape:cy="713.53242" inkscape:window-width="1440" inkscape:window-height="723" inkscape:window-x="0" inkscape:window-y="25" inkscape:window-maximized="0" inkscape:current-layer="svg6" />
    <path id="path6" d="M -254.7832 678.87305 L -261.54883 685.63867 L -261.54883 695.20508 L -254.7832 701.9707 L -245.2168 701.9707 L -238.45117 695.20508 L -238.45117 685.63867 L -245.2168 678.87305 L -254.7832 678.87305 z M -277.88086 701.9707 L -284.64453 708.73438 L -284.64453 718.30273 L -277.88086 725.06641 L -268.3125 725.06641 L -261.54883 718.30273 L -261.54883 708.73438 L -268.3125 701.9707 L -277.88086 701.9707 z M -231.6875 701.9707 L -238.45117 708.73438 L -238.45117 718.30273 L -231.6875 725.06641 L -222.11914 725.06641 L -215.35547 718.30273 L -215.35547 708.73438 L -222.11914 701.9707 L -231.6875 701.9707 z " />
</svg>
